src/images/platforms/sky.svg

<?xml version="1.0" encoding="UTF-8"?>
<svg id="SKY-Coin" xmlns="http://www.w3.org/2000/svg" version="1.1" xmlns:xlink="http://www.w3.org/1999/xlink" viewBox="0 0 1000 1000">
  <defs>
    <style>
      .cls-1 {
        fill: url(#radial-gradient-8);
      }

      .cls-1, .cls-2, .cls-3, .cls-4, .cls-5, .cls-6, .cls-7, .cls-8, .cls-9, .cls-10, .cls-11, .cls-12 {
        stroke-width: 0px;
      }

      .cls-2 {
        fill: url(#radial-gradient-2);
      }

      .cls-3 {
        fill: url(#radial-gradient-7);
      }

      .cls-4 {
        fill: url(#radial-gradient-5);
      }

      .cls-5 {
        fill: url(#radial-gradient);
      }

      .cls-6 {
        fill: url(#radial-gradient-10);
      }

      .cls-7 {
        fill: #fff;
      }

      .cls-8 {
        fill: url(#radial-gradient-6);
      }

      .cls-9 {
        fill: url(#radial-gradient-9);
      }

      .cls-10 {
        fill: url(#radial-gradient-3);
      }

      .cls-11 {
        fill: url(#radial-gradient-11);
      }

      .cls-12 {
        fill: url(#radial-gradient-4);
      }
    </style>
    <radialGradient id="radial-gradient" cx="-578.6211933" cy="414.7735993" fx="-578.6211933" fy="414.7735993" r="1.7" gradientTransform="translate(-185691.9026489 133979.7821655) rotate(-180) scale(321.7999878)" gradientUnits="userSpaceOnUse">
      <stop offset="0" stop-color="#6d28ff"/>
      <stop offset="1" stop-color="#f7a7f9"/>
    </radialGradient>
    <radialGradient id="radial-gradient-2" cx="-569.2439303" cy="416.4422724" fx="-569.2439303" fy="416.4422724" r="1.7" gradientTransform="translate(103489.1013336 141289.996994) rotate(90) scale(247.3000031)" gradientUnits="userSpaceOnUse">
      <stop offset="0" stop-color="#ffcd6b"/>
      <stop offset="1" stop-color="#eb5edf"/>
    </radialGradient>
    <radialGradient id="radial-gradient-3" cx="500" cy="-416" fx="500" fy="-416" r="416.8999939" gradientTransform="translate(0 84) scale(1 -1)" gradientUnits="userSpaceOnUse">
      <stop offset="0" stop-color="#a273ff"/>
      <stop offset=".5" stop-color="#9faeff"/>
      <stop offset="1" stop-color="#aaf2e1"/>
    </radialGradient>
    <radialGradient id="radial-gradient-4" cx="500" cy="-415.9000244" fx="500" fy="-415.9000244" r="446.3999939" gradientTransform="translate(0 84) scale(1 -1)" gradientUnits="userSpaceOnUse">
      <stop offset="0" stop-color="#ffd2b9"/>
      <stop offset=".3" stop-color="#c99bed"/>
      <stop offset="1" stop-color="#0075ff"/>
    </radialGradient>
    <radialGradient id="radial-gradient-5" cx="-583.1571013" cy="422.265491" fx="-583.1571013" fy="422.265491" r="1.7" gradientTransform="translate(-125250.3007393 -125638.8554115) rotate(-98.9999997) scale(247.3999998)" gradientUnits="userSpaceOnUse">
      <stop offset="0" stop-color="#f7a7f9"/>
      <stop offset="1" stop-color="#00ddfb"/>
    </radialGradient>
    <radialGradient id="radial-gradient-6" cx="-582.8575475" cy="423.1578308" fx="-582.8575475" fy="423.1578308" r="1.7" gradientTransform="translate(-104073.5151672 -143522.493988) rotate(-90) scale(247.1000061)" gradientUnits="userSpaceOnUse">
      <stop offset="0" stop-color="#a273ff"/>
      <stop offset=".5" stop-color="#9faeff"/>
      <stop offset="1" stop-color="#aaf2e1"/>
    </radialGradient>
    <radialGradient id="radial-gradient-7" cx="-579.2935914" cy="413.4080253" fx="-579.2935914" fy="413.4080253" r="1.7" gradientTransform="translate(-142933.400238 102859.5151672) rotate(-180) scale(247.6000061)" gradientUnits="userSpaceOnUse">
      <stop offset="0" stop-color="#fff3d0"/>
      <stop offset="1" stop-color="#ffc044"/>
    </radialGradient>
    <radialGradient id="radial-gradient-8" cx="-569.2439303" cy="416.4422724" fx="-569.2439303" fy="416.4422724" r="1.7" gradientTransform="translate(103489.1013336 141289.996994) rotate(90) scale(247.3000031)" gradientUnits="userSpaceOnUse">
      <stop offset="0" stop-color="#ffcd6b"/>
      <stop offset="1" stop-color="#eb5edf"/>
    </radialGradient>
    <radialGradient id="radial-gradient-9" cx="-572.0792952" cy="414.7550838" fx="-572.0792952" fy="414.7550838" r="1.7" gradientTransform="translate(38574.4148941 183684.3902359) rotate(114.1999964) scale(264.7999892)" gradientUnits="userSpaceOnUse">
      <stop offset="0" stop-color="#ffd2b9"/>
      <stop offset=".3" stop-color="#c99bed"/>
      <stop offset="1" stop-color="#0075ff"/>
    </radialGradient>
    <radialGradient id="radial-gradient-10" cx="-569.1484469" cy="416.7427029" fx="-569.1484469" fy="416.7427029" r="1.7" gradientTransform="translate(103832.6879578 141594.693512) rotate(90) scale(247.8999939)" gradientUnits="userSpaceOnUse">
      <stop offset="0" stop-color="#d4faff"/>
      <stop offset="1" stop-color="#00ddfb"/>
    </radialGradient>
    <radialGradient id="radial-gradient-11" cx="-569.5047131" cy="423.440335" fx="-569.5047131" fy="423.440335" r="1.7000614" gradientTransform="translate(175353.1642151 -1427.7746582) rotate(35.999999) scale(246.3999896)" gradientUnits="userSpaceOnUse">
      <stop offset="0" stop-color="#0075ff"/>
      <stop offset="1" stop-color="#00ddfb"/>
    </radialGradient>
  </defs>
  <g id="SKY-Coin-2">
    <circle id="White_Background" data-name="White Background" class="cls-7" cx="500" cy="500" r="500"/>
    <g id="SKY-Coin-3">
      <path id="Element" class="cls-5" d="M112.5,626c-13.1999969-40.7000122-20-83.2000122-20-126l3-2.2999878,393,.7999878,11.5,1.5-387.5,126Z"/>
      <path id="Element-2" class="cls-2" d="M625.9000244,887.5c-61.2000122,19.9000244-126.1000061,25-189.7000122,14.9000244l-3-4.5999756,65.3999939-392.6000061,1.2999878-5.2000122,125.8999939,387.4999695h.1000366Z"/>
      <path id="Element-3" class="cls-10" d="M907.5,500c0,42.7999878-6.7000122,85.2000122-19.9000244,125.9000244h-8.7999878l-376.6000061-124.3999939-2.1000061-1.5h407.5l-.0999756-.0000305Z"/>
      <path id="Element-4" class="cls-12" d="M170.3999939,260.5c12.5-17.3000031,26.3999939-33.5,41.5-48.6000061l3.3999939,1,282.7999878,283.8999939,1.8999939,3.2000122-329.6000061-239.5h.0000305Z"/>
      <path id="Element-5" class="cls-4" d="M211.8999939,211.8999939c60.7999878-60.8000031,139.3999939-100.9000015,224.3999939-114.3000031l1.7999878,3,61.8999939,392.9000092v6.5L211.8999939,211.8999939Z"/>
      <path id="Element-6" class="cls-8" d="M436.2000122,97.5999985c63.5-10.0999985,128.5-5,189.7000122,14.9000015l-125.8999939,387.5-63.7999878-402.3999939h0l-.0000305-.0000076Z"/>
      <path id="Element-7" class="cls-3" d="M92.5,500c0-42.7999878,6.6999969-85.2000122,19.9000015-125.8999939l387.4999924,125.8999939H92.5Z"/>
      <path id="Element-8" class="cls-1" d="M739.5,170.3999939c69.5999756,50.6000061,121.4000244,121.8999939,148,203.6999817l-387.5,125.8999939,239.5-329.6000061h0v.0000305Z"/>
      <path id="Element-9" class="cls-9" d="M260.5,829.5999756c-34.6000061-25.0999756-65-55.5999756-90.1000061-90.0999756l329.6000061-239.5-239.5,329.5999756Z"/>
      <path id="Element-10" class="cls-6" d="M436.2999878,902.4000244c-21.1000061-3.2999878-41.8999939-8.2999878-62.2000122-14.9000244l125.8999939-387.5-63.7000122,402.4000244h.0000305Z"/>
      <path id="Element-11" class="cls-11" d="M887.5,625.9000244c-26.5999756,81.7999878-78.4000244,153.2000122-148,203.7000122l-239.5-329.6000061,387.5,125.8999939Z"/>
    </g>
  </g>
</svg>

<svg xmlns="http://www.w3.org/2000/svg" viewBox="0 0 1000 1000"><defs><radialGradient id="a" cx="-578.621" cy="414.774" r="1.7" fx="-578.621" fy="414.774" gradientTransform="rotate(-179.993 -92845.952 66989.891)scale(321.79999)" gradientUnits="userSpaceOnUse"><stop offset="0" stop-color="#6d28ff"/><stop offset="1" stop-color="#f7a7f9"/></radialGradient><radialGradient id="b" cx="-569.244" cy="416.442" r="1.7" fx="-569.244" fy="416.442" gradientTransform="scale(247.3)rotate(90 -76.427 494.903)" gradientUnits="userSpaceOnUse"><stop offset="0" stop-color="#ffcd6b"/><stop offset="1" stop-color="#eb5edf"/></radialGradient><radialGradient id="c" cx="500" cy="-416" r="416.9" fx="500" fy="-416" gradientTransform="matrix(1 0 0 -1 0 84)" gradientUnits="userSpaceOnUse"><stop offset="0" stop-color="#a273ff"/><stop offset=".5" stop-color="#9faeff"/><stop offset="1" stop-color="#aaf2e1"/></radialGradient><radialGradient id="d" cx="500" cy="-415.9" r="446.4" fx="500" fy="-415.9" gradientTransform="matrix(1 0 0 -1 0 84)" gradientUnits="userSpaceOnUse"><stop offset="0" stop-color="#ffd2b9"/><stop offset=".3" stop-color="#c99bed"/><stop offset="1" stop-color="#0075ff"/></radialGradient><radialGradient id="e" cx="-583.157" cy="422.265" r="1.7" fx="-583.157" fy="422.265" gradientTransform="rotate(-99 -116278.01 -9332.496)scale(247.4)" gradientUnits="userSpaceOnUse"><stop offset="0" stop-color="#f7a7f9"/><stop offset="1" stop-color="#00ddfb"/></radialGradient><radialGradient id="f" cx="-582.858" cy="423.158" r="1.7" fx="-582.858" fy="423.158" gradientTransform="scale(247.1)rotate(-90 -501.004 -79.824)" gradientUnits="userSpaceOnUse"><stop offset="0" stop-color="#a273ff"/><stop offset=".5" stop-color="#9faeff"/><stop offset="1" stop-color="#aaf2e1"/></radialGradient><radialGradient id="g" cx="-579.294" cy="413.408" r="1.7" fx="-579.294" fy="413.408" gradientTransform="matrix(-247.6 0 0 -247.6 -142933.4 102859.515)" gradientUnits="userSpaceOnUse"><stop offset="0" stop-color="#fff3d0"/><stop offset="1" stop-color="#ffc044"/></radialGradient><radialGradient id="h" cx="-569.244" cy="416.442" r="1.7" fx="-569.244" fy="416.442" gradientTransform="scale(247.3)rotate(90 -76.427 494.903)" gradientUnits="userSpaceOnUse"><stop offset="0" stop-color="#ffcd6b"/><stop offset="1" stop-color="#eb5edf"/></radialGradient><radialGradient id="i" cx="-572.079" cy="414.755" r="1.7" fx="-572.079" fy="414.755" gradientTransform="rotate(114.2 -40128.177 104319.65)scale(264.79999)" gradientUnits="userSpaceOnUse"><stop offset="0" stop-color="#ffd2b9"/><stop offset=".3" stop-color="#c99bed"/><stop offset="1" stop-color="#0075ff"/></radialGradient><radialGradient id="j" cx="-569.148" cy="416.743" r="1.7" fx="-569.148" fy="416.743" gradientTransform="scale(247.9)rotate(90 -76.164 495.013)" gradientUnits="userSpaceOnUse"><stop offset="0" stop-color="#d4faff"/><stop offset="1" stop-color="#00ddfb"/></radialGradient><radialGradient id="k" cx="-569.505" cy="423.44" r="1.7" fx="-569.505" fy="423.44" gradientTransform="rotate(36 89873.702 269126.894)scale(246.39999)" gradientUnits="userSpaceOnUse"><stop offset="0" stop-color="#0075ff"/><stop offset="1" stop-color="#00ddfb"/></radialGradient></defs><circle cx="500" cy="500" r="500" data-name="White Background" style="stroke-width:0;fill:#fff"/><path d="M112.5 626c-13.2-40.7-20-83.2-20-126l3-2.3 393 .8L500 500z" style="stroke-width:0;fill:url(#a)"/><path d="M625.9 887.5c-61.2 19.9-126.1 25-189.7 14.9l-3-4.6 65.4-392.6 1.3-5.2 125.9 387.5z" style="stroke-width:0;fill:url(#b)"/><path d="M907.5 500c0 42.8-6.7 85.2-19.9 125.9h-8.8L502.2 501.5l-2.1-1.5h407.5z" style="stroke-width:0;fill:url(#c)"/><path d="M170.4 260.5c12.5-17.3 26.4-33.5 41.5-48.6l3.4 1 282.8 283.9 1.9 3.2z" style="stroke-width:0;fill:url(#d)"/><path d="M211.9 211.9C272.7 151.1 351.3 111 436.3 97.6l1.8 3L500 493.5v6.5z" style="stroke-width:0;fill:url(#e)"/><path d="M436.2 97.6c63.5-10.1 128.5-5 189.7 14.9L500 500z" style="stroke-width:0;fill:url(#f)"/><path d="M92.5 500c0-42.8 6.7-85.2 19.9-125.9L499.9 500z" style="stroke-width:0;fill:url(#g)"/><path d="M739.5 170.4c69.6 50.6 121.4 121.9 148 203.7L500 500z" style="fill:url(#h);stroke-width:0"/><path d="M260.5 829.6c-34.6-25.1-65-55.6-90.1-90.1L500 500z" style="stroke-width:0;fill:url(#i)"/><path d="M436.3 902.4c-21.1-3.3-41.9-8.3-62.2-14.9L500 500z" style="stroke-width:0;fill:url(#j)"/><path d="M887.5 625.9c-26.6 81.8-78.4 153.2-148 203.7L500 500z" style="stroke-width:0;fill:url(#k)"/></svg>
